docs/assets/img/cloud-fact.svg

<svg width="619" height="321" viewBox="0 0 619 321" fill="none" xmlns="http://www.w3.org/2000/svg">
<path d="M1.11866 238.867C9.01061 280.36 56.4229 307.584 107.094 299.797C132.275 295.928 153.53 284.035 167.61 268.068C166.901 271.916 166.842 275.807 167.56 279.578C173.353 310.034 355.152 327.525 413.129 318.617C471.106 309.708 513.5 277.744 507.707 247.288C507.627 246.87 507.548 246.451 507.468 246.031C516.789 254.664 530.628 259.296 544.928 257.098C567.932 253.564 583.395 233.933 579.463 213.257C578.48 208.088 576.462 203.365 573.461 199.369C602.618 192.013 622.332 172.017 618.532 152.039C615.689 137.091 600.498 126.197 580.544 122.217C594.958 105.48 601.735 85.6025 597.936 65.6249C589.353 20.4998 529.698 -8.00606 464.571 2.00105C432.863 6.87322 405.911 19.9296 387.455 37.2874C358.995 27.2823 190.795 24.0931 150.382 30.3029C142.921 31.4491 135.514 32.8752 128.47 34.5327C128.39 34.113 128.492 33.8103 128.413 33.3906C126.818 25.0087 113.885 20.094 99.4295 22.3153C84.9744 24.5366 74.5919 33.0331 76.1867 41.4158C76.8503 44.9085 79.6375 47.7868 83.5626 49.9164C42.4057 69.0374 17.417 97.464 22.6252 124.847C25.1761 138.258 34.5356 149.617 48.7057 158.511C15.1306 174.598 -5.0993 206.176 1.11866 238.867Z" fill="white"/>
</svg>

<svg width="619" height="321" fill="none" xmlns="http://www.w3.org/2000/svg"><path d="M1.119 238.867c7.892 41.493 55.304 68.717 105.975 60.93 25.181-3.869 46.436-15.762 60.516-31.729-.709 3.848-.768 7.739-.05 11.51 5.793 30.456 187.592 47.947 245.569 39.039 57.977-8.909 100.371-40.873 94.578-71.329l-.239-1.257c9.321 8.633 23.16 13.265 37.46 11.067 23.004-3.534 38.467-23.165 34.535-43.841-.983-5.169-3.001-9.892-6.002-13.888 29.157-7.356 48.871-27.352 45.071-47.33-2.843-14.948-18.034-25.842-37.988-29.822 14.414-16.737 21.191-36.614 17.392-56.592C589.353 20.5 529.698-8.006 464.571 2c-31.708 4.872-58.66 17.929-77.116 35.286-28.46-10.005-196.66-13.194-237.073-6.984a285.773 285.773 0 00-21.912 4.23c-.08-.42.022-.723-.057-1.142-1.595-8.382-14.528-13.297-28.984-11.076-14.455 2.222-24.837 10.718-23.242 19.1.663 3.493 3.45 6.372 7.376 8.501-41.157 19.121-66.146 47.548-60.938 74.931 2.551 13.411 11.91 24.77 26.08 33.664-33.574 16.087-53.804 47.665-47.586 80.356z" fill="#fff"/></svg>
